X: 111
T: Foot March 8 Divisions
B: C. & S. Thompson, "The Compleat Tutor for the Fife" c.1760 p.11 #1
S: http://imslp.org/wiki/The_Compleat_Tutor_for_the_Fife_(Anonymous)
Z: 2014 John Chambers <jc:trillian.mit.edu>
M: 3/4
L: 1/8
K: G
% - - - - - - - - - - - - - - - - - - - - - - - - -
[|\
G2 B2 d2 | g3 f g2 | a>gf>ed>c | B2 G2 B2 |\
d^cde d2 | zG (3(FED) E>D | D6 |]"2" G2 B2 Hd2 |
G3 c He2 |]"3" e | d3 cBA | GFED E>D | D6 |]"4"\
e>f g2 f>e | d^cde d2 | G3 A B2 |]"5" e3 fgf |
d4 c2 | B3 A G2 | G6 |]"6" e2 dc B2 |\
d2 ^c3 d | dA D2 c2 | B2 e2 dc | BAGFGA |
G2 F2 c2 | B2 efge | d3 cBA | G2 gdBG |]"7"\
G3 ABc | B4 Bc | dcded>c | B2 A3 G |
G6 |]"8" e3 f g2 | d3 cBA | BA G>f g2 |\
fe/d/ ed/^c/ d2 | G>c B2 (G/A/B/c/) | d>f g2 d>c | B2 TA3 G |\
G4 |]
% - - - - - - - - - - - - - - - - - - - - - - - - -
